X:283
T:Stafford's Reel
B:CRE2.285 (Ril Stafort)
F:file ID: cre.2/283staff
N:I have replaced single-note triplets with quarter notes.
Q:180
L:1/8
M:4/4
R:reel
K:Em
dA|BEE2 BEGB|ADDD DEFA|BEEE B2Bd|f2ed e2dA|
BEE2 B2GB|ADD2 DEFA|BEE2 B2Bd|f2 ed e2||
ee|gebe geba|fdad fddf|gebe geba|fgaf gfef|
gebe geba|fdad fddg|fbba faaf|gfed e2||

%%%

